!!!COM: Claude Goudimel
!!!OMD: Psalm 127: On a beau sa maison bastir
**kern	**kern	**kern	**kern
*part4	*part3	*part2	*part1
*staff4	*staff3	*staff2	*staff1
*clefF4	*clefGv2	*clefG2	*clefG2
*k[f#c#]	*k[f#c#]	*k[f#c#]	*k[f#c#]
!!LO:TX:omd:t=
*M4/4	*M4/4	*M4/4	*M4/4
=1	=1	=1	=1
2D	2F#	2d	2a
4D	4A	4f#	4dd
4D	4A	4f#	4dd
=2	=2	=2	=2
4AA	4A	4e	4cc#
4D	4F#	4d	4a
4BB	4F#	4d	4b
4AA	4A	4e	4cc#
=3	=3	=3	=3
2D	2A	2f#	2dd
2r	2r	2r	2r
=4	=4	=4	=4
2D	2A	2f#	2dd
4AA	4A	4e	4cc#
4BB	4F#	4d	4b
=5	=5	=5	=5
4D	4F#	4d	4a
4GG	4B	2e	4g
2D	2A	.	2f#
.	.	[4d	.
=6	=6	=6	=6
2AA	2A	4d]	2e
.	.	4c#	.
2D	2A	2d	2d
=7	=7	=7	=7
2r	2r	2r	2r
2D	2F#	2A	2d
=8	=8	=8	=8
4AA	4A	4c#	4e
4D	4A	4d	4f#
4BB	4B	4d	4g
4AA	4c#	4e	4a
=9	=9	=9	=9
4D	4d	4f#	4a
4E	4B	4e	4g#X
2AA	2A	2e	2a
=10	=10	=10	=10
2r	2r	2r	2r
2A	2c#	2e	2a
=11	=11	=11	=11
4E	4e	4g	4b
4G	4d	4g	4b
4D	4f#	4a	4dd
4D	4f#	4a	4dd
=12	=12	=12	=12
2A	2e	2a	2cc#
2E	2e	2g	2b
=13	=13	=13	=13
2F#	2c#	2f#	2a
2r	2r	2r	2r
=14	=14	=14	=14
2D	2F#	2d	2a
4E	4E	4B	4g
4D	4A	4d	4f#
=15	=15	=15	=15
4G	4G	4d	4b
4D	4d	2f#	4a
2E	2B	.	2g
.	.	[4e	.
=16	=16	=16	=16
2BB	2B	4e]	2f#
.	.	4e-X	.
2E	2B	2en	2e
=17	=17	=17	=17
2r	2r	2r	2r
2E	2G	2B	2e
=18	=18	=18	=18
4BB	4B	4e-X	4f#
4E	4B	4en	4g
4D	4d	4f#	4a
4BB	4d	4f#	[4b
=19	=19	=19	=19
4.C#	2c#	2e	4b]
.	.	.	2a
8D	.	.	.
4E	2B	2e	.
4E	.	.	4g#X
=20	=20	=20	=20
1AA	1A	1e	1a
==	==	==	==
*-	*-	*-	*-
!!!software: music21 v.9.7.1
!!!software: music21 v.8.3.0
!!!RDF**kern: > = above
!!!RDF**kern: < = below
